X: 45
T: Granite City, The
R:Reel
C:J. Scott Skinner
S:MacDonald - Skye Collection
N:pg.53
M:C
L:1/8
K:D
A,|D/D/D (FB) AFFA|GFED CDEC|D/D/D (FB) AFFA|(B/c/d) (e/f/g) fdd:|
g|fdec dBcA|(B/c/d) (AF) BEEg|fdec dBcA|(B/c/d) (e/f/g) fddg|fdec dBcA|
(B/c/d) (AF) BEEF|DFEG FAGB|Adce fdd||


